svg/fluentui-system-icons/ic_fluent_border_bottom_thick_20_filled.svg

<svg width="20" height="20" viewBox="0 0 20 20" fill="none" xmlns="http://www.w3.org/2000/svg">
<path d="M9 3C8.44772 3 8 3.44772 8 4C8 4.55228 8.44772 5 9 5H11C11.5523 5 12 4.55228 12 4C12 3.44772 11.5523 3 11 3H9ZM4.35565 3.49564C4.4817 3.3892 4.6359 3.31253 4.80935 3.27881C5.35138 3.17345 5.8762 3.52744 5.98157 4.06948C6.06379 4.49246 5.86628 4.90496 5.51797 5.11583L5.5219 5.1213C5.35296 5.21342 5.21354 5.35284 5.12142 5.52177L5.11556 5.51757C4.9745 5.75056 4.73932 5.92538 4.45091 5.98144C3.90887 6.0868 3.38405 5.73281 3.27869 5.19077C3.21866 4.88197 3.30773 4.57875 3.49573 4.3555L3.49207 4.35287C3.7173 4.0106 4.01072 3.71718 4.353 3.49194L4.35565 3.49564ZM5.99984 15.0005C5.62071 15.0005 5.29086 14.7895 5.1213 14.4786L5.11544 14.4828C4.97438 14.2498 4.7392 14.0749 4.45078 14.0189C3.90875 13.9135 3.38393 14.2675 3.27857 14.8096C3.21854 15.1184 3.30761 15.4216 3.4956 15.6448L3.49194 15.6475C4.02827 16.4625 4.95123 17.0005 5.99984 17.0005H14.0001C15.0487 17.0005 15.9717 16.4625 16.508 15.6474L16.5044 15.6448C16.6924 15.4215 16.7815 15.1183 16.7214 14.8095C16.6161 14.2674 16.0913 13.9134 15.5492 14.0188C15.2608 14.0749 15.0256 14.2497 14.8846 14.4827L14.8787 14.4785C14.7091 14.7895 14.3792 15.0005 14.0001 15.0005H5.99984ZM15.6445 3.49564C15.5184 3.3892 15.3642 3.31253 15.1908 3.27881C14.6487 3.17345 14.1239 3.52744 14.0186 4.06948C13.9363 4.49246 14.1338 4.90496 14.4822 5.11583L14.4782 5.1213C14.6472 5.21342 14.7866 5.35284 14.8787 5.52177L14.8846 5.51757C15.0256 5.75056 15.2608 5.92538 15.5492 5.98144C16.0913 6.0868 16.6161 5.73281 16.7214 5.19077C16.7815 4.88197 16.6924 4.57875 16.5044 4.3555L16.5081 4.35287C16.2828 4.0106 15.9894 3.71718 15.6471 3.49194L15.6445 3.49564ZM4 12C3.44772 12 3 11.5523 3 11V9C3 8.44772 3.44772 8 4 8C4.55228 8 5 8.44772 5 9V11C5 11.5523 4.55228 12 4 12ZM15 11C15 11.5523 15.4477 12 16 12C16.5523 12 17 11.5523 17 11V9C17 8.44772 16.5523 8 16 8C15.4477 8 15 8.44772 15 9V11Z" fill="#212121"/>
</svg>

<svg xmlns="http://www.w3.org/2000/svg" width="20" height="20"><path d="M9 3a1 1 0 0 0 0 2h2a1 1 0 1 0 0-2H9Zm-4.644.496a1 1 0 1 1 1.162 1.62l.004.005a1.005 1.005 0 0 0-.4.4l-.006-.003a1 1 0 1 1-1.62-1.162l-.004-.003c.225-.342.519-.636.861-.861l.003.004ZM6 15a1 1 0 0 1-.879-.522l-.006.004a1 1 0 1 0-1.62 1.162l-.003.003A2.997 2.997 0 0 0 6 17h8a2.997 2.997 0 0 0 2.508-1.353l-.004-.002a1 1 0 1 0-1.62-1.162l-.005-.005a1 1 0 0 1-.879.523H6Zm9.645-11.505a1 1 0 1 0-1.162 1.62l-.005.005c.17.092.309.232.4.4l.007-.003a1 1 0 1 0 1.62-1.162l.003-.003a3.017 3.017 0 0 0-.86-.861l-.003.004ZM4 12a1 1 0 0 1-1-1V9a1 1 0 0 1 2 0v2a1 1 0 0 1-1 1Zm11-1a1 1 0 1 0 2 0V9a1 1 0 1 0-2 0v2Z"/></svg>
